X:1
T:Title
%%score { ( 1 3 ) | 2 }
L:1/8
M:4/4
K:Ab
V:1 treble nm="Grand Piano"
V:3 treble 
V:2 bass 
V:1
 z4 z2[Q:1/4=100] [A,C][B,D] | [CE][CE][CE][CE] [CE]2 [Ec][EB] | %2
 [FA][FA][EG][DF] [CE]2 [A,C][B,D] | [CE][CE][CE][DF] [CE]2 [Ec]2 | B6 AB | cccd c2 [=Ec][GB] | %6
 [FA][FA][FA][DF] [FA]2 [EG]F | EEEF E2 B2 |[M:3/4] [CA]6 |[M:1/4] [CA]>[DB] |[M:4/4] [Ec]4 z4 | %11
 E6 z2 | [B,EG]GGG G2 B2 | [CA][Ec]-[E-Ac-][E-Ac-] [EAc]2 c>d | %14
 [ce]-[Ec-e-][Ece][EAc] [DFB][DFA][A,EG][A,DF] | z [CA]3- [CA]2 z2 | [Ec] .[Ee]3 [EAc]2 [DGB]2 | %17
[M:3/4] [CEA]6 |] %18
V:2
 z4 z2 [A,,E,][A,,E,] | [A,,A,][A,,A,][A,,A,][A,,A,] [A,,A,]2 [A,,A,][A,,A,] | %2
 [D,A,][D,D][D,D][D,A,] [A,,A,]2 [A,,E,][A,,E,] | [A,,A,][A,,A,][A,,A,][A,,A,] [A,,A,]2 [A,,A,]2 | %4
 [E,G,E]6[K:treble] [A,C][A,DA] | [A,EA][A,EA][A,EA][A,FA] [A,EA]2[K:bass] [C,C][C,C] | %6
 [F,C][D,D][D,D][D,A,] [D,D]2 [D,A,][D,A,D] | [E,A,C][E,A,C][E,A,C][E,A,D] [E,G,D]2 [E,G,D]2 | %8
[M:3/4] [A,,E,]6 |[M:1/4] [A,,A,]>[A,,A,] |[M:4/4] [A,,A,]A,,A,,A,, [D,D]2 [D,A,]2 | %11
 [A,,A,][A,,A,][B,,G,][B,,G,] [C,A,]2 C2 | E,E,E,E, E,2 D2 | A,A,A,A, A,2[K:treble] A>B | %14
 A,A,A,[K:bass]A, D,D,D,D, | A,,A,,C,E, A,,A,,D,[D,A,] | [E,A,] .[E,C]3 E,2 E,2 |[M:3/4] A,,6 |] %18
V:3
 x8 | x8 | x8 | x8 | x8 | x8 | x8 | x8 |[M:3/4] x6 |[M:1/4] x2 | %10
[M:4/4] z A,A,[CEA] [FB][FA][EG][DF] | CCDD C2 A2 | z [DB]3- [DB]2 z2 | z A z2 z4 | .E2 z2 z4 | %15
 [A,CE]A,A,A, A,A,[A,FA][=EB] | x8 |[M:3/4] x6 |] %18

